src/actions/symbolic/view-list-compact-symbolic.svg

<svg xmlns="http://www.w3.org/2000/svg" width="16" height="16"><path fill="currentColor" d="M5 3v1h9V3zm0 4v1h9V7zm0 4v1h9v-1z" color="#2e3440" overflow="visible"/><g fill="currentColor" stroke-linecap="round" stroke-linejoin="round" stroke-opacity=".25" stroke-width="1.002"><path d="M2.5 2A1.5 1.5 0 0 0 1 3.5 1.5 1.5 0 0 0 2.5 5 1.5 1.5 0 0 0 4 3.5 1.5 1.5 0 0 0 2.5 2m-.012 1H2.5a.5.5 0 0 1 .5.5.5.5 0 0 1-.5.5.5.5 0 0 1-.5-.5.5.5 0 0 1 .488-.5M2.5 6A1.5 1.5 0 0 0 1 7.5 1.5 1.5 0 0 0 2.5 9 1.5 1.5 0 0 0 4 7.5 1.5 1.5 0 0 0 2.5 6m-.012 1H2.5a.5.5 0 0 1 .5.5.5.5 0 0 1-.5.5.5.5 0 0 1-.5-.5.5.5 0 0 1 .488-.5M2.5 10A1.5 1.5 0 0 0 1 11.5 1.5 1.5 0 0 0 2.5 13 1.5 1.5 0 0 0 4 11.5 1.5 1.5 0 0 0 2.5 10m-.012 1H2.5a.5.5 0 0 1 .5.5.5.5 0 0 1-.5.5.5.5 0 0 1-.5-.5.5.5 0 0 1 .488-.5" style="paint-order:markers stroke fill"/></g></svg>

<svg width="16" height="16" version="1.1" xmlns="http://www.w3.org/2000/svg">
 <g transform="translate(-873 -57)" color="#2e3440">
  <path d="m878 60v1h9v-1zm0 4v1h9v-1zm0 4v1h9v-1z" fill="currentColor" overflow="visible"/>
 </g>
 <g fill="currentColor" stroke-linecap="round" stroke-linejoin="round" stroke-opacity=".25" stroke-width="1.0016">
  <path d="m2.5 2a1.5 1.5 0 0 0-1.5 1.5 1.5 1.5 0 0 0 1.5 1.5 1.5 1.5 0 0 0 1.5-1.5 1.5 1.5 0 0 0-1.5-1.5zm-0.011719 1a0.5 0.5 0 0 1 0.011719 0 0.5 0.5 0 0 1 0.5 0.5 0.5 0.5 0 0 1-0.5 0.5 0.5 0.5 0 0 1-0.5-0.5 0.5 0.5 0 0 1 0.48828-0.5z" style="paint-order:markers stroke fill"/>
  <path d="M 2.5,6 A 1.5,1.5 0 0 0 1,7.5 1.5,1.5 0 0 0 2.5,9 1.5,1.5 0 0 0 4,7.5 1.5,1.5 0 0 0 2.5,6 Z M 2.4882812,7 A 0.5,0.5 0 0 1 2.5,7 0.5,0.5 0 0 1 3,7.5 0.5,0.5 0 0 1 2.5,8 0.5,0.5 0 0 1 2,7.5 0.5,0.5 0 0 1 2.4882812,7 Z" style="paint-order:markers stroke fill"/>
  <path d="M 2.5,10 A 1.5,1.5 0 0 0 1,11.5 1.5,1.5 0 0 0 2.5,13 1.5,1.5 0 0 0 4,11.5 1.5,1.5 0 0 0 2.5,10 Z m -0.011719,1 A 0.5,0.5 0 0 1 2.5,11 0.5,0.5 0 0 1 3,11.5 0.5,0.5 0 0 1 2.5,12 0.5,0.5 0 0 1 2,11.5 0.5,0.5 0 0 1 2.4882812,11 Z" style="paint-order:markers stroke fill"/>
 </g>
</svg>
